48/places/folder-games.svg

<?xml version="1.0" encoding="UTF-8" standalone="no"?>
<!-- Created with Inkscape (http://www.inkscape.org/) -->

<svg
   xmlns:dc="http://purl.org/dc/elements/1.1/"
   xmlns:cc="http://creativecommons.org/ns#"
   xmlns:rdf="http://www.w3.org/1999/02/22-rdf-syntax-ns#"
   xmlns:svg="http://www.w3.org/2000/svg"
   xmlns="http://www.w3.org/2000/svg"
   xmlns:xlink="http://www.w3.org/1999/xlink"
   xmlns:sodipodi="http://sodipodi.sourceforge.net/DTD/sodipodi-0.dtd"
   xmlns:inkscape="http://www.inkscape.org/namespaces/inkscape"
   width="48"
   height="48"
   viewBox="0 0 12.7 12.7"
   version="1.1"
   id="svg2634"
   inkscape:version="0.92.4 5da689c313, 2019-01-14"
   sodipodi:docname="folder-games.svg">
  <title
     id="title3250">Boston Icons</title>
  <defs
     id="defs2628">
    <linearGradient
       inkscape:collect="always"
       xlink:href="#linearGradient1027"
       id="linearGradient1029"
       x1="99.48333"
       y1="170"
       x2="99.48333"
       y2="155.18333"
       gradientUnits="userSpaceOnUse"
       gradientTransform="matrix(0.37931048,0,0,0.37931048,51.164931,106.39309)" />
    <linearGradient
       inkscape:collect="always"
       id="linearGradient1027">
      <stop
         style="stop-color:#2d8cff;stop-opacity:1"
         offset="0"
         id="stop1023" />
      <stop
         style="stop-color:#2d8cff;stop-opacity:0"
         offset="1"
         id="stop1025" />
    </linearGradient>
  </defs>
  <sodipodi:namedview
     id="base"
     pagecolor="#ffffff"
     bordercolor="#00ffed"
     borderopacity="1"
     inkscape:pageopacity="1"
     inkscape:pageshadow="2"
     inkscape:zoom="22.4"
     inkscape:cx="22.202578"
     inkscape:cy="18.523442"
     inkscape:document-units="px"
     inkscape:current-layer="layer1"
     showgrid="false"
     showguides="false"
     inkscape:guide-bbox="true"
     fit-margin-top="0"
     fit-margin-left="0"
     fit-margin-right="0"
     fit-margin-bottom="0"
     inkscape:window-width="1920"
     inkscape:window-height="1016"
     inkscape:window-x="0"
     inkscape:window-y="27"
     inkscape:window-maximized="1"
     units="px">
    <inkscape:grid
       type="xygrid"
       id="grid3182"
       spacingx="0.26458333"
       spacingy="0.26458333"
       empspacing="4"
       originx="-82.550004"
       originy="-127.00001"
       dotted="false" />
    <sodipodi:guide
       position="-4.268358e-06,27.516666"
       orientation="1,0"
       id="guide3216"
       inkscape:locked="false" />
    <sodipodi:guide
       position="32.279157,-4.1479283e-06"
       orientation="0,1"
       id="guide3222"
       inkscape:locked="false" />
    <sodipodi:guide
       position="13.229163,0.52915746"
       orientation="0,1"
       id="guide3226"
       inkscape:locked="false" />
    <sodipodi:guide
       position="0.52916318,6.8791574"
       orientation="1,0"
       id="guide3228"
       inkscape:locked="false" />
    <sodipodi:guide
       position="1.0583298,6.8791574"
       orientation="1,0"
       id="guide3234"
       inkscape:locked="false" />
    <sodipodi:guide
       position="1.5874965,6.8791574"
       orientation="1,0"
       id="guide3236"
       inkscape:locked="false" />
    <sodipodi:guide
       position="6.3499965,7.9374908"
       orientation="1,0"
       id="guide3238"
       inkscape:locked="false" />
    <sodipodi:guide
       position="13.75833,1.0583241"
       orientation="0,1"
       id="guide3246"
       inkscape:locked="false" />
    <sodipodi:guide
       position="5.2916632,10.054157"
       orientation="0,1"
       id="guide862"
       inkscape:locked="false" />
    <sodipodi:guide
       position="5.8208298,12.170824"
       orientation="0,1"
       id="guide864"
       inkscape:locked="false" />
    <sodipodi:guide
       position="6.8791632,11.641657"
       orientation="0,1"
       id="guide866"
       inkscape:locked="false" />
    <sodipodi:guide
       position="12.17083,8.4666574"
       orientation="1,0"
       id="guide868"
       inkscape:locked="false" />
    <sodipodi:guide
       position="11.641663,8.4666574"
       orientation="1,0"
       id="guide870"
       inkscape:locked="false" />
    <sodipodi:guide
       position="11.112496,8.4666574"
       orientation="1,0"
       id="guide872"
       inkscape:locked="false" />
    <sodipodi:guide
       position="3.4395782,6.879155"
       orientation="1,0"
       id="guide931"
       inkscape:locked="false" />
    <sodipodi:guide
       position="9.2604115,5.8208217"
       orientation="1,0"
       id="guide933"
       inkscape:locked="false" />
  </sodipodi:namedview>
  <metadata
     id="metadata2631">
    <rdf:RDF>
      <cc:Work
         rdf:about="">
        <dc:format>image/svg+xml</dc:format>
        <dc:type
           rdf:resource="http://purl.org/dc/dcmitype/StillImage" />
        <dc:title>Boston Icons</dc:title>
        <cc:license
           rdf:resource="dribbble.com/chrisdiaz" />
        <dc:creator>
          <cc:Agent>
            <dc:title>Christian Díaz</dc:title>
          </cc:Agent>
        </dc:creator>
        <dc:date>2019</dc:date>
        <dc:publisher>
          <cc:Agent>
            <dc:title>Christian Díaz</dc:title>
          </cc:Agent>
        </dc:publisher>
        <dc:identifier>christiandiaz.design [at] gmail [dot] com</dc:identifier>
        <dc:subject>
          <rdf:Bag>
            <rdf:li>GNOME icon Theme</rdf:li>
          </rdf:Bag>
        </dc:subject>
        <dc:description>diazchris.deviantart.com | dribbble.com/chrisdiaz</dc:description>
      </cc:Work>
    </rdf:RDF>
  </metadata>
  <g
     inkscape:label="Capa 1"
     inkscape:groupmode="layer"
     id="layer1"
     transform="translate(-82.550003,-157.3)">
    <g
       id="g856">
      <path
         sodipodi:nodetypes="ccccccc"
         inkscape:connector-curvature="0"
         id="path881"
         d="m 83.079166,159.94584 4.762499,1e-5 1.058333,1.05833 h 5.820835 v 8.46666 H 83.079166 Z"
         style="fill:#2d8cff;stroke:none;stroke-width:0.26458332px;stroke-linecap:butt;stroke-linejoin:miter;stroke-opacity:1" />
      <path
         sodipodi:nodetypes="cccccc"
         inkscape:connector-curvature="0"
         id="path906"
         d="m 83.343748,160.21043 h 4.365627 l 0.793753,0.79375 -0.661463,0.79375 h -4.497917 v -1.5875"
         style="fill:#6fb7ff;stroke:none;stroke-width:0.26458332px;stroke-linecap:butt;stroke-linejoin:miter;stroke-opacity:1" />
      <path
         sodipodi:nodetypes="ccccccc"
         inkscape:connector-curvature="0"
         id="path908"
         d="m 83.079166,162.06251 h 4.7625 l 1.058333,-1.05833 h 5.820834 v 8.46666 H 83.079166 Z"
         style="fill:#2d8cff;fill-opacity:1;stroke:none;stroke-width:0.26458332px;stroke-linecap:butt;stroke-linejoin:miter;stroke-opacity:1" />
      <path
         sodipodi:nodetypes="ccccccc"
         inkscape:connector-curvature="0"
         id="path910"
         d="m 83.343748,162.06251 h 4.64344 l 0.661463,-0.79375 h 5.807597 v 7.9375 h -11.1125 z"
         style="fill:#6fb7ff;fill-opacity:1;stroke:none;stroke-width:0.26458332px;stroke-linecap:butt;stroke-linejoin:miter;stroke-opacity:1" />
      <rect
         y="165.25575"
         x="83.079163"
         height="4.2150879"
         width="11.641671"
         id="rect1005"
         style="opacity:0.3;fill:url(#linearGradient1029);fill-opacity:1;stroke:none;stroke-width:0.20071845;stroke-linejoin:bevel;stroke-miterlimit:4;stroke-dasharray:none;stroke-opacity:1" />
      <path
         style="opacity:1;fill:#2d8cff;fill-opacity:1;fill-rule:nonzero;stroke:none;stroke-width:0.99999994;stroke-linecap:butt;stroke-linejoin:bevel;stroke-miterlimit:4;stroke-dasharray:none;stroke-dashoffset:35;stroke-opacity:1"
         d="m 16,20 v 19 4 h 12 c 2.215997,0 4,-1.784025 4,-4 V 20 h -4 -8 z m 1,1 h 3 8 3 v 18 c 0,1.662009 -1.337998,3 -3,3 H 17 v -3 z m 1,1 V 32 H 30 V 22 Z m 1,1 h 10 v 8 H 19 Z m 1,11 v 2 h -2 v 2 h 2 v 2 h 2 v -2 h 2 v -2 h -2 v -2 z m 9,0 a 0.99999995,0.99999995 0 0 0 -1,1 0.99999995,0.99999995 0 0 0 1,1 0.99999995,0.99999995 0 0 0 1,-1 0.99999995,0.99999995 0 0 0 -1,-1 z m -2,3 a 0.99999995,0.99999995 0 0 0 -1,1 0.99999995,0.99999995 0 0 0 1,1 0.99999995,0.99999995 0 0 0 1,-1 0.99999995,0.99999995 0 0 0 -1,-1 z"
         transform="matrix(0.26458333,0,0,0.26458333,82.550003,157.3)"
         id="rect885"
         inkscape:connector-curvature="0" />
    </g>
  </g>
</svg>

<?xml version="1.0" encoding="UTF-8" standalone="no"?>
<!-- Created with Inkscape (http://www.inkscape.org/) -->

<svg
   xmlns:dc="http://purl.org/dc/elements/1.1/"
   xmlns:cc="http://creativecommons.org/ns#"
   xmlns:rdf="http://www.w3.org/1999/02/22-rdf-syntax-ns#"
   xmlns:svg="http://www.w3.org/2000/svg"
   xmlns="http://www.w3.org/2000/svg"
   xmlns:xlink="http://www.w3.org/1999/xlink"
   xmlns:sodipodi="http://sodipodi.sourceforge.net/DTD/sodipodi-0.dtd"
   xmlns:inkscape="http://www.inkscape.org/namespaces/inkscape"
   width="48"
   height="48"
   viewBox="0 0 12.7 12.7"
   version="1.1"
   id="svg2634"
   inkscape:version="0.92.4 5da689c313, 2019-01-14"
   sodipodi:docname="folder-games.svg">
  <title
     id="title3250">Boston Icons</title>
  <defs
     id="defs2628">
    <linearGradient
       inkscape:collect="always"
       xlink:href="#linearGradient1027"
       id="linearGradient1029"
       x1="99.48333"
       y1="170"
       x2="99.48333"
       y2="155.18333"
       gradientUnits="userSpaceOnUse"
       gradientTransform="matrix(0.37931048,0,0,0.37931048,51.164931,106.39309)" />
    <linearGradient
       inkscape:collect="always"
       id="linearGradient1027">
      <stop
         style="stop-color:#7fb9ec;stop-opacity:1;"
         offset="0"
         id="stop1023" />
      <stop
         style="stop-color:#7fb9ec;stop-opacity:0;"
         offset="1"
         id="stop1025" />
    </linearGradient>
  </defs>
  <sodipodi:namedview
     id="base"
     pagecolor="#ffffff"
     bordercolor="#00ffed"
     borderopacity="1"
     inkscape:pageopacity="1"
     inkscape:pageshadow="2"
     inkscape:zoom="22.4"
     inkscape:cx="12.916863"
     inkscape:cy="17.541299"
     inkscape:document-units="px"
     inkscape:current-layer="layer1"
     showgrid="false"
     showguides="false"
     inkscape:guide-bbox="true"
     fit-margin-top="0"
     fit-margin-left="0"
     fit-margin-right="0"
     fit-margin-bottom="0"
     inkscape:window-width="1920"
     inkscape:window-height="1016"
     inkscape:window-x="0"
     inkscape:window-y="27"
     inkscape:window-maximized="1"
     units="px">
    <inkscape:grid
       type="xygrid"
       id="grid3182"
       spacingx="0.26458333"
       spacingy="0.26458333"
       empspacing="4"
       originx="-82.550004"
       originy="-127.00001"
       dotted="false" />
    <sodipodi:guide
       position="-4.268358e-06,27.516666"
       orientation="1,0"
       id="guide3216"
       inkscape:locked="false" />
    <sodipodi:guide
       position="32.279157,-4.1479283e-06"
       orientation="0,1"
       id="guide3222"
       inkscape:locked="false" />
    <sodipodi:guide
       position="13.229163,0.52915746"
       orientation="0,1"
       id="guide3226"
       inkscape:locked="false" />
    <sodipodi:guide
       position="0.52916318,6.8791574"
       orientation="1,0"
       id="guide3228"
       inkscape:locked="false" />
    <sodipodi:guide
       position="1.0583298,6.8791574"
       orientation="1,0"
       id="guide3234"
       inkscape:locked="false" />
    <sodipodi:guide
       position="1.5874965,6.8791574"
       orientation="1,0"
       id="guide3236"
       inkscape:locked="false" />
    <sodipodi:guide
       position="6.3499965,7.9374908"
       orientation="1,0"
       id="guide3238"
       inkscape:locked="false" />
    <sodipodi:guide
       position="13.75833,1.0583241"
       orientation="0,1"
       id="guide3246"
       inkscape:locked="false" />
    <sodipodi:guide
       position="5.2916632,10.054157"
       orientation="0,1"
       id="guide862"
       inkscape:locked="false" />
    <sodipodi:guide
       position="5.8208298,12.170824"
       orientation="0,1"
       id="guide864"
       inkscape:locked="false" />
    <sodipodi:guide
       position="6.8791632,11.641657"
       orientation="0,1"
       id="guide866"
       inkscape:locked="false" />
    <sodipodi:guide
       position="12.17083,8.4666574"
       orientation="1,0"
       id="guide868"
       inkscape:locked="false" />
    <sodipodi:guide
       position="11.641663,8.4666574"
       orientation="1,0"
       id="guide870"
       inkscape:locked="false" />
    <sodipodi:guide
       position="11.112496,8.4666574"
       orientation="1,0"
       id="guide872"
       inkscape:locked="false" />
    <sodipodi:guide
       position="3.4395782,6.879155"
       orientation="1,0"
       id="guide931"
       inkscape:locked="false" />
    <sodipodi:guide
       position="9.2604115,5.8208217"
       orientation="1,0"
       id="guide933"
       inkscape:locked="false" />
  </sodipodi:namedview>
  <metadata
     id="metadata2631">
    <rdf:RDF>
      <cc:Work
         rdf:about="">
        <dc:format>image/svg+xml</dc:format>
        <dc:type
           rdf:resource="http://purl.org/dc/dcmitype/StillImage" />
        <dc:title>Boston Icons</dc:title>
        <cc:license
           rdf:resource="dribbble.com/chrisdiaz" />
        <dc:creator>
          <cc:Agent>
            <dc:title>Christian Díaz</dc:title>
          </cc:Agent>
        </dc:creator>
        <dc:date>2019</dc:date>
        <dc:publisher>
          <cc:Agent>
            <dc:title>Christian Díaz</dc:title>
          </cc:Agent>
        </dc:publisher>
        <dc:identifier>christiandiaz.design [at] gmail [dot] com</dc:identifier>
        <dc:subject>
          <rdf:Bag>
            <rdf:li>GNOME icon Theme</rdf:li>
          </rdf:Bag>
        </dc:subject>
        <dc:description>diazchris.deviantart.com | dribbble.com/chrisdiaz</dc:description>
      </cc:Work>
    </rdf:RDF>
  </metadata>
  <g
     inkscape:label="Capa 1"
     inkscape:groupmode="layer"
     id="layer1"
     transform="translate(-82.550003,-157.3)">
    <g
       id="g856">
      <path
         sodipodi:nodetypes="ccccccc"
         inkscape:connector-curvature="0"
         id="path881"
         d="m 83.079166,159.94584 4.762499,1e-5 1.058333,1.05833 5.820835,0 v 8.46666 H 83.079166 Z"
         style="fill:#7fb9ec;stroke:none;stroke-width:0.26458332px;stroke-linecap:butt;stroke-linejoin:miter;stroke-opacity:1" />
      <path
         sodipodi:nodetypes="cccccc"
         inkscape:connector-curvature="0"
         id="path906"
         d="m 83.343748,160.21043 h 4.365627 l 0.793753,0.79375 -0.661463,0.79375 -4.497917,0 v -1.5875"
         style="fill:#b9d9f7;stroke:none;stroke-width:0.26458332px;stroke-linecap:butt;stroke-linejoin:miter;stroke-opacity:1" />
      <path
         sodipodi:nodetypes="ccccccc"
         inkscape:connector-curvature="0"
         id="path908"
         d="m 83.079166,162.06251 4.7625,0 1.058333,-1.05833 h 5.820834 v 8.46666 H 83.079166 Z"
         style="fill:#7fb9ec;fill-opacity:1;stroke:none;stroke-width:0.26458332px;stroke-linecap:butt;stroke-linejoin:miter;stroke-opacity:1" />
      <path
         sodipodi:nodetypes="ccccccc"
         inkscape:connector-curvature="0"
         id="path910"
         d="m 83.343748,162.06251 h 4.64344 l 0.661463,-0.79375 5.807597,0 v 7.9375 h -11.1125 z"
         style="fill:#b9d9f7;fill-opacity:1;stroke:none;stroke-width:0.26458332px;stroke-linecap:butt;stroke-linejoin:miter;stroke-opacity:1" />
      <rect
         y="165.25575"
         x="83.079163"
         height="4.2150879"
         width="11.641671"
         id="rect1005"
         style="opacity:0.3;fill:url(#linearGradient1029);fill-opacity:1;stroke:none;stroke-width:0.20071845;stroke-linejoin:bevel;stroke-miterlimit:4;stroke-dasharray:none;stroke-opacity:1" />
      <path
         id="rect885"
         transform="matrix(0.26458333,0,0,0.26458333,82.550003,157.3)"
         d="M 16 20 L 16 39 L 16 43 L 28 43 C 30.215997 43 32 41.215975 32 39 L 32 20 L 28 20 L 20 20 L 16 20 z M 17 21 L 20 21 L 28 21 L 31 21 L 31 39 C 31 40.662009 29.662002 42 28 42 L 17 42 L 17 39 L 17 21 z "
         style="opacity:1;fill:#7fb9ec;fill-opacity:1;fill-rule:nonzero;stroke:none;stroke-width:0.99999994;stroke-linecap:butt;stroke-linejoin:bevel;stroke-miterlimit:4;stroke-dasharray:none;stroke-dashoffset:35;stroke-opacity:1" />
      <path
         id="rect853"
         transform="matrix(0.26458333,0,0,0.26458333,82.550003,157.3)"
         d="M 18 22 L 18 32 L 30 32 L 30 22 L 18 22 z M 19 23 L 29 23 L 29 31 L 19 31 L 19 23 z "
         style="opacity:1;fill:#7fb9ec;fill-opacity:1;fill-rule:nonzero;stroke:none;stroke-width:0.99999994;stroke-linecap:butt;stroke-linejoin:bevel;stroke-miterlimit:4;stroke-dasharray:none;stroke-dashoffset:35;stroke-opacity:1" />
      <rect
         rx="5.1917596e-06"
         y="166.825"
         x="87.3125"
         height="0.52918136"
         width="1.5874978"
         id="rect862"
         style="opacity:1;fill:#7fb9ec;fill-opacity:1;fill-rule:nonzero;stroke:none;stroke-width:0.26458332;stroke-linecap:butt;stroke-linejoin:bevel;stroke-miterlimit:4;stroke-dasharray:none;stroke-dashoffset:35;stroke-opacity:1" />
      <rect
         rx="5.1917596e-06"
         y="166.29584"
         x="87.841667"
         height="1.5875076"
         width="0.52916402"
         id="rect864"
         style="opacity:1;fill:#7fb9ec;fill-opacity:1;fill-rule:nonzero;stroke:none;stroke-width:0.26458332;stroke-linecap:butt;stroke-linejoin:bevel;stroke-miterlimit:4;stroke-dasharray:none;stroke-dashoffset:35;stroke-opacity:1" />
      <circle
         r="0.26458332"
         cy="166.56042"
         cx="90.222916"
         id="path866"
         style="opacity:1;fill:#7fb9ec;fill-opacity:1;fill-rule:nonzero;stroke:none;stroke-width:0.26458332;stroke-linecap:butt;stroke-linejoin:bevel;stroke-miterlimit:4;stroke-dasharray:none;stroke-dashoffset:35;stroke-opacity:1" />
      <circle
         r="0.26458332"
         cy="167.35417"
         cx="89.693748"
         id="path870"
         style="opacity:1;fill:#7fb9ec;fill-opacity:1;fill-rule:nonzero;stroke:none;stroke-width:0.26458332;stroke-linecap:butt;stroke-linejoin:bevel;stroke-miterlimit:4;stroke-dasharray:none;stroke-dashoffset:35;stroke-opacity:1" />
    </g>
  </g>
</svg>
